X:51
T:Kinek van, kinek van karikagyűrüje
M:4/4
L:1/4
K:D
D/D/ D G/A/B | d<A B<G | D2 D z |
A/A/ A d/e/f | f<e f<d | A2 A2 |
d>e f<e | d2 A2 | d<=c B<A | E2 A z |
D/D/ D G/A/B | d<A B<G | D2 D z |

